48x48/apps/io.photoflare.photoflare.svg

<svg xmlns="http://www.w3.org/2000/svg" width="48" height="48" version="1">
 <rect style="opacity:0.2" width="40" height="40" x="4" y="5" rx="12" ry="12"/>
 <rect style="fill:#4f4f4f" width="40" height="40" x="4" y="4" rx="12" ry="12"/>
 <path style="opacity:0.2" d="M 32.5,9.5 31.439453,11.439453 29.5,12.5 31.439453,13.560547 32.5,15.5 33.560547,13.560547 35.5,12.5 33.560547,11.439453 Z m -5,2 -0.353516,0.646484 L 26.5,12.5 27.146484,12.853516 27.5,13.5 27.853516,12.853516 28.5,12.5 27.853516,12.146484 Z M 24,12 c -7.168161,0 -13,5.831676 -13,13 0,7.168161 5.831839,13 13,13 7.168161,0 13,-5.831839 13,-13 H 35.886719 C 35.886719,31.554429 30.554593,36.886719 24,36.886719 17.445406,36.886719 12.113281,31.554593 12.113281,25 12.113281,18.445243 17.445406,13.113281 24,13.113281 Z m 0,3 c -0.16032,0 -0.320025,0.0043 -0.478516,0.01172 -5.125345,0.241241 -9.240969,4.340192 -9.507812,9.458984 C 14.004572,24.645804 14,24.822612 14,25 c 0,5.522943 4.477057,10 10,10 0.07239,0 0.144715,-0.0044 0.216797,-0.0059 C 29.639617,34.87893 34,30.450403 34,25 34,24.736052 33.986917,24.475563 33.966797,24.216797 33.566608,19.060516 29.25869,15 24,15 Z M 35.5,15.5 34.792969,16.792969 33.5,17.5 34.792969,18.207031 35.5,19.5 36.207031,18.207031 37.5,17.5 36.207031,16.792969 Z m -10.402344,4.917969 c 0.398075,0.09835 0.673828,0.28125 0.673828,0.28125 0,0 -0.275772,-0.182899 -0.673828,-0.28125 z M 37,20.498047 36.470703,21.46875 35.5,22 36.470703,22.529297 37,23.5 37.53125,22.529297 38.5,22 37.53125,21.46875 Z m -21.865234,6.662109 c 0.134945,0.123135 0.476264,0.219704 0.828125,0.289063 -0.351861,-0.06938 -0.69318,-0.165852 -0.828125,-0.289063 z m 3.550781,0 c -0.134946,0.123211 -0.476264,0.219685 -0.828125,0.289063 0.351861,-0.06936 0.693179,-0.165928 0.828125,-0.289063 z m 4.447265,4.078125 c 0.111694,-0.0098 0.228066,-0.009 0.347657,0.0039 -0.239134,-0.02559 -0.468094,0.0019 -0.666016,0.05078 0.09952,-0.02458 0.206038,-0.04481 0.318359,-0.05469 z"/>
 <path style="fill:#f4f4f7;opacity:0.1" d="M 16 4 C 9.352 4 4 9.352 4 16 L 4 17 C 4 10.352 9.352 5 16 5 L 32 5 C 38.648 5 44 10.352 44 17 L 44 16 C 44 9.352 38.648 4 32 4 L 16 4 z"/>
 <path style="fill:#f4f4f7" d="M 32.5 8.5 L 31.439453 10.439453 L 29.5 11.5 L 31.439453 12.560547 L 32.5 14.5 L 33.560547 12.560547 L 35.5 11.5 L 33.560547 10.439453 L 32.5 8.5 z M 27.5 10.5 L 27.146484 11.146484 L 26.5 11.5 L 27.146484 11.853516 L 27.5 12.5 L 27.853516 11.853516 L 28.5 11.5 L 27.853516 11.146484 L 27.5 10.5 z M 24 11 C 16.831839 11 11 16.831676 11 24 C 11 31.168161 16.831839 37 24 37 C 31.168161 37 37 31.168161 37 24 L 35.886719 24 C 35.886719 30.554429 30.554593 35.886719 24 35.886719 C 17.445406 35.886719 12.113281 30.554593 12.113281 24 C 12.113281 17.445243 17.445406 12.113281 24 12.113281 L 24 11 z M 35.5 14.5 L 34.792969 15.792969 L 33.5 16.5 L 34.792969 17.207031 L 35.5 18.5 L 36.207031 17.207031 L 37.5 16.5 L 36.207031 15.792969 L 35.5 14.5 z M 37 19.498047 L 36.470703 20.46875 L 35.5 21 L 36.470703 21.529297 L 37 22.5 L 37.53125 21.529297 L 38.5 21 L 37.53125 20.46875 L 37 19.498047 z"/>
 <path style="fill:#0092ee" d="m 23.93569,23.931957 c 0,0 -1.423673,-0.262272 -2.678797,-0.449565 -1.254972,-0.187293 -2.627136,0.135784 -2.978406,0.543288 -0.35127,0.407351 0.463585,1.180146 0.646306,1.489203 0.18257,0.309056 0.08427,0.351117 -0.238802,0.646154 -0.269892,0.246422 -1.365306,0.381749 -1.719472,0.419695 v 0.01128 c 0,0 -0.02057,-0.002 -0.05593,-0.0055 -0.03536,0.0035 -0.05578,0.0055 -0.05578,0.0055 v -0.01128 c -0.354165,-0.03795 -1.44958,-0.173273 -1.719471,-0.419695 -0.323077,-0.295037 -0.421524,-0.337098 -0.238803,-0.646154 0.182569,-0.309057 0.997425,-1.081852 0.646307,-1.489203 -0.214724,-0.249014 -0.81135,-0.465871 -1.528825,-0.554565 -0.0091,0.175101 -0.01402,0.351422 -0.01402,0.52881 0,5.522943 4.477057,10.000153 10,10.000153 0.07239,0 0.143861,-0.004 0.215943,-0.0055 0.296256,-1.107453 0.682577,-3.006598 0.0034,-3.476737 -0.974108,-0.674347 -2.079276,0.05623 -2.079276,0.05623 0,0 -0.786815,0.43082 -1.180146,-0.01874 -0.393483,-0.449565 -0.468309,-1.161402 -0.430973,-1.648304 0.03749,-0.487054 0.449718,-1.817156 1.198891,-1.480059 0.749326,0.337403 2.244624,0.596931 2.56633,0.187446 0.824304,-1.049086 -0.358433,-3.68247 -0.358433,-3.68247"/>
 <path style="fill:#bee34a" d="m 23.93569,23.931957 c 0,0 5.247718,-1.562657 5.547174,-0.06416 0.299913,1.498651 -1.573325,1.573629 -0.449412,2.322955 0.891205,0.593883 1.639159,0.575595 1.911489,0.542678 v -0.01829 c 0,0 0.02057,0.0049 0.05562,0.01052 0.03536,-0.0056 0.05593,-0.01052 0.05593,-0.01052 v 0.01829 c 0.27233,0.03307 1.020284,0.05136 1.911489,-0.542678 1.123912,-0.749326 -0.749326,-0.824304 -0.449565,-2.322955 0.09647,-0.481873 0.688977,-0.647679 1.448209,-0.651336 -0.400189,-5.156281 -4.707936,-9.216538 -9.966626,-9.216538 -0.16032,0 -0.31942,0.0046 -0.477911,0.01204 -0.221582,0.863469 -0.40598,2.089029 0.09509,2.726802 0.321858,0.409637 1.817157,0.149804 2.56633,-0.187446 0.749326,-0.337098 1.161401,0.992853 1.19889,1.479907 0.03734,0.487054 -0.03749,1.19889 -0.43082,1.648455 -0.393331,0.449565 -1.180146,0.01875 -1.180146,0.01875 0,0 -1.105168,-0.730581 -2.079276,-0.05623 -0.974108,0.674347 0.243527,4.289764 0.243527,4.289764"/>
 <path style="fill:#f15976" d="m 14.896539,25.51473 c -0.182569,0.309057 -0.08427,0.35127 0.238803,0.646307 0.269891,0.24627 1.365306,0.381597 1.719472,0.419543 v 0.01128 c 0,0 0.02057,-0.002 0.05593,-0.0055 0.0352,0.0035 0.05578,0.0055 0.05578,0.0055 v -0.01128 c 0.354165,-0.03795 1.44958,-0.173273 1.719471,-0.419543 0.323077,-0.295037 0.421524,-0.33725 0.238803,-0.646307 -0.182569,-0.309057 -0.997425,-1.081851 -0.646307,-1.489203 0.35127,-0.407504 1.723434,-0.730581 2.978559,-0.543287 1.254972,0.187293 2.678645,0.449564 2.678645,0.449564 0,0 -1.217635,-3.615264 -0.243527,-4.289763 0.974261,-0.674348 2.079428,0.05623 2.079428,0.05623 0,0 0.786815,0.430821 1.180146,-0.01874 0.393483,-0.449565 0.468157,-1.161402 0.430821,-1.648456 -0.03734,-0.487055 -0.449566,-1.817005 -1.198739,-1.479755 -0.749326,0.337098 -2.244625,0.596778 -2.56633,0.187293 -0.501075,-0.637772 -0.316677,-1.86318 -0.09525,-2.726649 -5.125345,0.241241 -9.241227,4.340206 -9.50807,9.458998 0.717475,0.08869 1.314101,0.305552 1.528825,0.554565 0.351118,0.407352 -0.46389,1.180299 -0.646459,1.489203"/>
 <path style="fill:#10e7c4" d="m 34.000001,23.999925 c 0,-0.263948 -0.01341,-0.524696 -0.03353,-0.783462 -0.759079,0.0037 -1.35159,0.169463 -1.448056,0.651336 -0.299608,1.498651 1.57363,1.573477 0.449565,2.322802 -0.891205,0.594188 -1.639159,0.575748 -1.911489,0.542831 v -0.01814 c 0,0 -0.02073,0.0046 -0.05578,0.01036 -0.0352,-0.0058 -0.05578,-0.01036 -0.05578,-0.01036 v 0.01814 c -0.27233,0.03307 -1.020284,0.05151 -1.911489,-0.542831 -1.123913,-0.749325 0.749325,-0.824151 0.449565,-2.322802 -0.299761,-1.498499 -5.547327,0.06416 -5.547327,0.06416 0,0 1.182737,2.633384 0.358433,3.682318 -0.321706,0.409637 -1.817004,0.149956 -2.56633,-0.187294 -0.749326,-0.33725 -1.161402,0.992853 -1.198891,1.479907 -0.03749,0.487054 0.03749,1.198891 0.43082,1.648303 0.393484,0.449565 1.180147,0.01874 1.180147,0.01874 0,0 1.10532,-0.730581 2.079276,-0.05608 0.679224,0.470291 0.293055,2.369284 -0.0032,3.476585 5.42282,-0.115211 9.784057,-4.544111 9.784057,-9.994514"/>
</svg>

<svg xmlns="http://www.w3.org/2000/svg" width="48" height="48" version="1"><rect style="opacity:.2" width="40" height="40" x="4" y="5" rx="12" ry="12"/><rect style="fill:#4f4f4f" width="40" height="40" x="4" y="4" rx="12" ry="12"/><path style="opacity:.2" d="m32.5 9.5-1.06 1.94-1.94 1.06 1.94 1.06 1.06 1.94 1.06-1.94 1.94-1.06-1.94-1.06zm-5 2-.354.646-.646.354.646.354.354.646.354-.646.646-.354-.646-.354zM24 12c-7.168 0-13 5.832-13 13s5.832 13 13 13 13-5.832 13-13h-1.113c0 6.554-5.332 11.887-11.887 11.887-6.555 0-11.887-5.332-11.887-11.887 0-6.555 5.332-11.887 11.887-11.887zm0 3a10 10 0 1 0 0 20c.072 0 .145-.004.217-.006C29.64 34.88 34 30.45 34 25c0-.264-.013-.524-.033-.783C33.567 19.06 29.259 15 24 15zm11.5.5-.707 1.293-1.293.707 1.293.707.707 1.293.707-1.293L37.5 17.5l-1.293-.707zm-10.402 4.918c.398.098.673.281.673.281s-.275-.183-.673-.281zm11.902.08-.53.97-.97.532.97.53.53.97.531-.97.969-.53-.969-.531zM15.135 27.16c.135.123.476.22.828.29-.352-.07-.693-.167-.828-.29zm3.55 0c-.134.123-.476.22-.828.29.352-.07.694-.167.829-.29zm4.448 4.078z"/><path style="fill:#f4f4f7;opacity:.1" d="M16 4C9.352 4 4 9.352 4 16v1C4 10.352 9.352 5 16 5h16c6.648 0 12 5.352 12 12v-1c0-6.648-5.352-12-12-12H16z"/><path style="fill:#f4f4f7" d="m32.5 8.5-1.06 1.94-1.94 1.06 1.94 1.06 1.06 1.94 1.06-1.94 1.94-1.06-1.94-1.06L32.5 8.5zm-5 2-.354.646-.646.354.646.354.354.646.354-.646.646-.354-.646-.354-.354-.646zM24 11c-7.168 0-13 5.832-13 13s5.832 13 13 13 13-5.832 13-13h-1.113c0 6.554-5.332 11.887-11.887 11.887-6.555 0-11.887-5.332-11.887-11.887 0-6.555 5.332-11.887 11.887-11.887V11zm11.5 3.5-.707 1.293-1.293.707 1.293.707.707 1.293.707-1.293L37.5 16.5l-1.293-.707L35.5 14.5zm1.5 4.998-.53.97-.97.532.97.53.53.97.531-.97.969-.53-.969-.531-.531-.971z"/><path style="fill:#0092ee" d="M23.936 23.932s-1.424-.262-2.68-.45c-1.254-.187-2.626.136-2.978.544-.35.407.464 1.18.647 1.489.182.309.084.351-.239.646-.27.246-1.365.382-1.72.42v.011l-.055-.005a60.57 60.57 0 0 1-.056.005v-.011c-.354-.038-1.45-.174-1.72-.42-.323-.295-.421-.337-.238-.646.182-.31.997-1.082.646-1.49-.215-.248-.812-.465-1.529-.554-.01.175-.014.352-.014.529 0 5.523 4.477 10 10 10 .072 0 .144-.004.216-.005.296-1.108.683-3.007.003-3.477-.974-.675-2.079.056-2.079.056s-.787.43-1.18-.019c-.394-.45-.468-1.161-.431-1.648.037-.487.45-1.817 1.199-1.48.75.337 2.244.597 2.566.187.824-1.049-.358-3.682-.358-3.682"/><path style="fill:#bee34a" d="M23.936 23.932s5.247-1.563 5.547-.064c.3 1.498-1.573 1.573-.45 2.323.892.594 1.64.575 1.912.542v-.018s.02.005.056.01c.035-.005.055-.01.055-.01v.018c.273.033 1.02.052 1.912-.542 1.124-.75-.75-.825-.45-2.323.097-.482.69-.648 1.449-.652C33.567 18.06 29.259 14 24 14c-.16 0-.32.005-.478.012-.221.863-.406 2.089.095 2.727.322.41 1.817.15 2.567-.188.749-.337 1.16.993 1.198 1.48.038.487-.037 1.2-.43 1.649-.394.45-1.18.018-1.18.018s-1.106-.73-2.08-.056c-.974.675.244 4.29.244 4.29"/><path style="fill:#f15976" d="M14.897 25.515c-.183.309-.085.351.238.646.27.246 1.366.382 1.72.42v.01l.056-.005.056.006v-.011c.354-.038 1.45-.174 1.719-.42.323-.295.422-.337.239-.646-.183-.31-.998-1.082-.647-1.49.352-.407 1.724-.73 2.98-.543 1.254.188 2.678.45 2.678.45s-1.218-3.615-.244-4.29c.974-.674 2.08.056 2.08.056s.786.431 1.18-.018c.393-.45.468-1.162.43-1.649-.037-.487-.449-1.817-1.198-1.48-.75.337-2.245.597-2.567.188-.5-.638-.316-1.864-.095-2.727a10 10 0 0 0-9.508 9.459c.718.089 1.314.306 1.529.555.351.407-.464 1.18-.646 1.489"/><path style="fill:#10e7c4" d="M34 24c0-.264-.013-.525-.034-.784-.759.004-1.351.17-1.448.652-.3 1.498 1.574 1.573.45 2.323-.891.594-1.64.575-1.912.542v-.018s-.02.005-.055.01c-.035-.005-.056-.01-.056-.01v.018c-.272.034-1.02.052-1.912-.542-1.123-.75.75-.825.45-2.323-.3-1.499-5.547.064-5.547.064s1.182 2.633.358 3.682c-.322.41-1.817.15-2.566-.187-.75-.337-1.162.993-1.2 1.48-.037.487.038 1.199.432 1.648.393.45 1.18.019 1.18.019s1.105-.73 2.08-.056c.678.47.292 2.37-.004 3.476C29.639 33.88 34 29.45 34 24"/></svg>
